X:60
T:Rick Daley's Return
R:jig
C:Paul S. Cranford
O:Cape Breton Island
S:http://www.cranfordpub.com
D:Brenda Stubbert Music All Around
B:Silver Appple News. 2004
Z:psc, (re-formatted,updated 9/17/04)
N:
H:                                                        copyrights Cranford Publications, SOCAN
L:1/8
Q:300
M:6/8
K:D
ABd fdd|dAd BAF|Eed efg|fgf edB|
ABd fdd|dAd BAF|Eed efg|[1edc d2 B:|[2edc d2:|
|:e|fdd ede|fdB AFD|Eed efg|fgf ede|
fdd ede|fdB AFD|Eed efg|edc d2:|
|:f|afa bag|afd AFD|Eed efg|[1fgf efg|
afa bag|afd AFD|Eed efg|edc d2:|
[2fgf edB|ABd fdd|dAd BAF|Eed egb|aec d2 B|]
